app/assets/images/heroicon/solid/finger-print.svg

<svg width="24" height="24" viewBox="0 0 24 24" fill="none" xmlns="http://www.w3.org/2000/svg">
<path fill-rule="evenodd" clip-rule="evenodd" d="M12 3.75C10.6232 3.75 9.3447 4.16143 8.27806 4.86788C7.93272 5.09661 7.46736 5.00207 7.23863 4.65674C7.00991 4.3114 7.10444 3.84603 7.44978 3.61731C8.75444 2.7532 10.3196 2.25 12 2.25C16.5564 2.25 20.25 5.94365 20.25 10.5C20.25 13.5153 19.6759 16.3983 18.6299 19.0442C18.4776 19.4294 18.0419 19.6182 17.6567 19.466C17.2715 19.3137 17.0827 18.8779 17.2349 18.4927C18.2127 16.0196 18.75 13.3235 18.75 10.5C18.75 6.77208 15.7279 3.75 12 3.75ZM6.15674 5.73863C6.50208 5.96735 6.59661 6.43272 6.36789 6.77806C5.66143 7.84469 5.25001 9.12316 5.25001 10.5C5.25001 12.1132 4.78656 13.6204 3.98462 14.893C3.76378 15.2434 3.30068 15.3485 2.95024 15.1276C2.59981 14.9068 2.49475 14.4437 2.71559 14.0933C3.37095 13.0533 3.75001 11.8222 3.75001 10.5C3.75001 8.81959 4.25321 7.25443 5.11731 5.94977C5.34604 5.60443 5.81141 5.5099 6.15674 5.73863ZM12 7.5C10.3432 7.5 9.00001 8.84315 9.00001 10.5C9.00001 13.5997 7.82404 16.4266 5.89465 18.5556C5.6165 18.8626 5.1422 18.8859 4.83527 18.6077C4.52834 18.3296 4.505 17.8553 4.78315 17.5484C6.47221 15.6845 7.50001 13.2132 7.50001 10.5C7.50001 8.01472 9.51473 6 12 6C14.4853 6 16.5 8.01472 16.5 10.5C16.5 11.0472 16.4778 11.5897 16.4334 12.1264C16.3993 12.5392 16.037 12.8462 15.6242 12.8121C15.2114 12.778 14.9044 12.4157 14.9385 12.0029C14.9794 11.5078 15 11.0066 15 10.5C15 8.84315 13.6569 7.5 12 7.5ZM12.0003 9.75C12.4145 9.75 12.7503 10.0858 12.7503 10.5C12.7503 14.4082 11.3259 17.9855 8.96887 20.7384C8.69948 21.053 8.22602 21.0897 7.91138 20.8203C7.59674 20.5509 7.56007 20.0775 7.82946 19.7628C9.9626 17.2715 11.2503 14.0371 11.2503 10.5C11.2503 10.0858 11.5861 9.75 12.0003 9.75ZM15.2387 14.9331C15.6371 15.0467 15.8678 15.4617 15.7542 15.8601C15.1843 17.8576 14.3041 19.7239 13.1694 21.4035C12.9375 21.7467 12.4713 21.837 12.128 21.6051C11.7848 21.3732 11.6946 20.907 11.9264 20.5637C12.974 19.0132 13.7861 17.291 14.3118 15.4485C14.4254 15.0502 14.8404 14.8194 15.2387 14.9331Z" fill="#0F172A"/>
</svg>

<svg xmlns="http://www.w3.org/2000/svg" viewBox="0 0 24 24" fill="currentColor" aria-hidden="true">
  <path fill-rule="evenodd" d="M12 3.75a6.715 6.715 0 00-3.722 1.118.75.75 0 11-.828-1.25 8.25 8.25 0 0112.8 6.883c0 3.014-.574 5.897-1.62 8.543a.75.75 0 01-1.395-.551A21.69 21.69 0 0018.75 10.5 6.75 6.75 0 0012 3.75zM6.157 5.739a.75.75 0 01.21 1.04A6.715 6.715 0 005.25 10.5c0 1.613-.463 3.12-1.265 4.393a.75.75 0 01-1.27-.8A6.715 6.715 0 003.75 10.5c0-1.68.503-3.246 1.367-4.55a.75.75 0 011.04-.211zM12 7.5a3 3 0 00-3 3c0 3.1-1.176 5.927-3.105 8.056a.75.75 0 11-1.112-1.008A10.459 10.459 0 007.5 10.5a4.5 4.5 0 119 0c0 .547-.022 1.09-.067 1.626a.75.75 0 01-1.495-.123c.041-.495.062-.996.062-1.503a3 3 0 00-3-3zm0 2.25a.75.75 0 01.75.75A15.69 15.69 0 018.97 20.738a.75.75 0 01-1.14-.975A14.19 14.19 0 0011.25 10.5a.75.75 0 01.75-.75zm3.239 5.183a.75.75 0 01.515.927 19.415 19.415 0 01-2.585 5.544.75.75 0 11-1.243-.84 17.912 17.912 0 002.386-5.116.75.75 0 01.927-.515z" clip-rule="evenodd"/>
</svg>
